X: 26752
T: Mill House, The
R: reel
M: 4/4
K: Amajor
AB|:c2BA FEE2|A,B,CE FDAF|EFAB cfec|cBBA ~B3e|
(3cBA BA FEE2|A,B,CE FDAF|EFAB cfec|1 BEGB AGAB:|2 ~B3c ABcd||
eAce gaga|~f3a ecAF|EFAB cfec|cBBA ~B3c|
[1eAce gaga|fbaf ecAF|EFAB cfec|~B3c ABcd:|
[2cABA FEE2|A,B,CE FDAF|EFAB cfec|~B3c AGAB||

